X: 41182
T: Tripping Up The Stairs
R: jig
M: 6/8
K: Dmajor
G|:FAA GBB|FAd fed|cBc ABc|dfe dAG|
FAA GBB|FAd fed|cBc ABc|1 dfe d2G:|2 dfe d2c||
dBB fBB|fgf fed|cAA eAA|efe edc|
dBB fBB|fgf fed|cBc ABc|dfe d2c|
dBB fBB|fgf fed|cAA eAA|a^ga edc|
dBB fBB|fgf fed|cBc ABc|dfe d2G||

